images/sun.svg

<svg width="24" height="24" viewBox="0 0 24 24" fill="none" xmlns="http://www.w3.org/2000/svg">
<circle cx="12" cy="12" r="3" fill="black" fill-opacity="0.15"/>
<path d="M3 12H5M5.00006 19L7.00006 17M12 19V21M17 17L19 19M5 5L7 7M19 12H21M16.9999 7L18.9999 5M12 3V5M15 12C15 13.6569 13.6569 15 12 15C10.3431 15 9 13.6569 9 12C9 10.3431 10.3431 9 12 9C13.6569 9 15 10.3431 15 12Z" stroke="black" stroke-width="2" stroke-linecap="round" stroke-linejoin="round"/>
</svg>

<svg xmlns="http://www.w3.org/2000/svg" width="24" height="24" viewBox="0 0 24 24" fill="none"><path stroke="#000" stroke-linecap="round" stroke-linejoin="round" stroke-width="2" d="M3 12h2m0 7 2-2m5 2v2m5-4 2 2M5 5l2 2m12 5h2m-4-5 2-2m-7-2v2m3 7a3 3 0 1 1-6 0 3 3 0 0 1 6 0"/></svg>
